public/images/multiplatform/hero/ios.svg

<svg width="48" height="48" viewBox="0 0 48 48" fill="none" xmlns="http://www.w3.org/2000/svg">
    <path d="M41.0058 31.0765C40.732 30.964 36.4045 29.0852 36.4045 24.0565C36.4045 20.4265 38.7408 18.349 40.1358 17.4377C40.2371 17.3702 40.3045 17.3252 40.3383 17.299L41.4633 16.4252L40.6458 15.2552C38.497 12.1727 35.1221 10.4777 31.1471 10.4777C29.0433 10.4777 27.2358 11.194 25.7808 11.7715C25.7058 11.8015 25.6308 11.8315 25.5596 11.8577C25.9008 8.89521 27.607 6.44649 30.8433 4.24149L29.1558 1.7627C24.982 4.60145 22.807 7.98398 22.5258 12.0677C22.2745 11.974 22.0083 11.8652 21.7383 11.7565C20.4483 11.2352 18.8395 10.5865 17.0095 10.5865C11.0658 10.5865 5.05078 15.364 5.05078 24.4915C5.05078 29.479 6.82453 35.1002 9.68578 39.1689C11.6658 41.9477 13.9083 45.094 17.392 45.094C18.9258 45.094 20.0583 44.614 21.0596 44.1902C22.0683 43.7627 22.9383 43.3914 24.3108 43.3914C25.6945 43.3914 26.4821 43.7364 27.3971 44.1339C28.3683 44.5577 29.4708 45.0377 31.1508 45.0377C34.852 45.0377 37.0796 41.8352 38.8721 39.2515C40.9871 36.169 41.9096 33.1165 41.9733 32.7602L42.2133 31.474L41.0058 31.0765ZM36.4045 37.549C34.6383 40.0915 33.127 42.0377 31.1508 42.0377C30.097 42.0377 29.4333 41.749 28.597 41.3852C27.5808 40.9427 26.3208 40.3914 24.3108 40.3914C22.327 40.3914 20.9733 40.9652 19.8858 41.4265C19.0083 41.7977 18.3183 42.0902 17.392 42.0902C15.5958 42.0902 14.077 40.1552 12.1345 37.4327C9.65204 33.9039 8.05078 28.8227 8.05078 24.4877C8.05078 17.329 12.5583 13.5827 17.0095 13.5827C18.2545 13.5827 19.4545 14.0665 20.6133 14.5352C21.7045 14.9777 22.7358 15.394 23.7933 15.394C24.772 15.394 25.7508 15.0077 26.8833 14.5577C28.162 14.0514 29.6133 13.4777 31.1433 13.4777C32.9358 13.4777 35.3358 13.9202 37.252 15.8515C35.4595 17.374 33.4008 20.0065 33.4008 24.0565C33.4008 29.0327 36.517 31.9727 38.6508 33.2515C38.2533 34.2865 37.5258 35.9102 36.4045 37.549Z" fill="white"/>
</svg>

<svg xmlns="http://www.w3.org/2000/svg" width="48" height="48" fill="none" viewBox="0 0 48 48">
    <path fill="#fff" d="M41.006 31.077c-.274-.113-4.602-1.992-4.602-7.02 0-3.63 2.337-5.708 3.732-6.62q.151-.1.202-.138l1.125-.874-.817-1.17c-2.149-3.082-5.524-4.777-9.499-4.777-2.104 0-3.911.716-5.366 1.293l-.221.087c.34-2.963 2.047-5.412 5.283-7.617l-1.687-2.478c-4.174 2.838-6.349 6.221-6.63 10.305-.252-.094-.518-.203-.788-.311-1.29-.522-2.898-1.17-4.728-1.17-5.944 0-11.96 4.777-11.96 13.904 0 4.988 1.775 10.61 4.636 14.678 1.98 2.779 4.222 5.925 7.706 5.925 1.534 0 2.666-.48 3.668-.904 1.008-.427 1.878-.799 3.25-.799 1.385 0 2.172.345 3.087.743.971.424 2.074.904 3.754.904 3.701 0 5.929-3.203 7.721-5.786 2.115-3.083 3.038-6.135 3.101-6.492l.24-1.286zm-4.602 6.472c-1.766 2.543-3.277 4.489-5.253 4.489-1.054 0-1.718-.289-2.554-.653-1.016-.442-2.276-.994-4.286-.994-1.984 0-3.338.574-4.425 1.035-.878.372-1.568.664-2.494.664-1.796 0-3.315-1.935-5.257-4.657-2.483-3.53-4.084-8.61-4.084-12.945 0-7.159 4.507-10.905 8.958-10.905 1.245 0 2.445.483 3.604.952 1.092.443 2.123.859 3.18.859.979 0 1.958-.386 3.09-.836 1.279-.507 2.73-1.08 4.26-1.08 1.793 0 4.193.442 6.109 2.374-1.793 1.522-3.851 4.154-3.851 8.205 0 4.976 3.116 7.916 5.25 9.195a21.4 21.4 0 0 1-2.247 4.297"/>
</svg>
